( Made using CamBam - http://www.cambam.co.uk )
( Drills 12/8/2014 9:20:02 AM )
( T3 : 3.0 )
G21 G90 G64 G40
G0 Z11.0
( T3 : 3.0 )
T3 M6
( Drills )
G17
M3 S1000
G0 X20.0 Y20.0
G98
G81 X20.0 Y20.0 Z0.0 R11.0 F100.0
G81 X30.0 Z0.0
G81 X40.0 Z0.0
G81 X50.0 Z0.0
G80
( Drills - Dwell )
S1000
G0 Z11.0
G0 X20.0 Y30.0
G98
G82 X20.0 Y30.0 Z0.0 P1.0 R11.0 F100.0
G82 X30.0 Z0.0 P1.0
G82 X40.0 Z0.0 P1.0
G82 X50.0 Z0.0 P1.0
G80
( Drills - Peck )
S1000
G0 Z11.0
G0 X20.0 Y40.0
G98
G83 X20.0 Y40.0 Z0.0 Q3.0 R11.0 F100.0
G83 X30.0 Z0.0
G83 X40.0 Z0.0
G83 X50.0 Z0.0
G80
( Drills - Dwell + Peck )
S1000
G0 Z11.0
G0 X20.0 Y50.0
G98
G83 X20.0 Y50.0 Z0.0 P2.0 Q5.0 R11.0 F100.0
G83 X30.0 Z0.0 P2.0
G83 X40.0 Z0.0 P2.0
G83 X50.0 Z0.0 P2.0
G80
G0 Z11.0
M5
M30
